flaticon/interaction/calendar-19.svg

<svg xmlns="http://www.w3.org/2000/svg" width="32" height="32" viewBox="0 0 24 24">
    <path d="M 19.035156 13.863281 C 16.296875 13.863281 14.070312 16.089844 14.070312 18.828125 C 14.070312 21.566406 16.296875 23.792969 19.035156 23.792969 C 21.773438 23.792969 24 21.566406 24 18.828125 C 24 16.089844 21.773438 13.863281 19.035156 13.863281 Z M 19.035156 22.964844 C 16.753906 22.964844 14.898438 21.109375 14.898438 18.828125 C 14.898438 16.546875 16.753906 14.691406 19.035156 14.691406 C 21.316406 14.691406 23.171875 16.546875 23.171875 18.828125 C 23.171875 21.109375 21.316406 22.964844 19.035156 22.964844 Z M 19.035156 22.964844"/>
    <path d="M21.515625 18.414062L19.449219 18.414062 19.449219 16.34375C19.449219 16.117188 19.261719 15.929688 19.035156 15.929688 18.804688 15.929688 18.621094 16.117188 18.621094 16.34375L18.621094 18.828125C18.621094 19.054688 18.804688 19.242188 19.035156 19.242188L21.515625 19.242188C21.746094 19.242188 21.929688 19.054688 21.929688 18.828125 21.929688 18.597656 21.746094 18.414062 21.515625 18.414062zM7.472656 16.789062L7.472656 7.242188 6.644531 7.242188 4.550781 8.484375 4.550781 9.308594 6.644531 8.070312 6.644531 16.789062zM14.921875 13.316406L14.921875 10.277344C14.921875 9.433594 14.625 8.71875 14.039062 8.128906 13.449219 7.539062 12.734375 7.246094 11.894531 7.246094 11.054688 7.246094 10.339844 7.539062 9.75 8.128906 9.164062 8.71875 8.867188 9.429688 8.867188 10.269531 8.867188 11.113281 9.164062 11.824219 9.75 12.414062 10.339844 13.003906 11.066406 13.296875 11.9375 13.296875 12.804688 13.296875 13.539062 12.976562 14.136719 12.328125L14.136719 13.21875C14.136719 14.109375 13.875 14.785156 13.351562 15.246094 12.832031 15.707031 12.214844 15.9375 11.5 15.9375L11.195312 15.9375 11.195312 16.722656 11.445312 16.722656C12.082031 16.722656 12.636719 16.609375 13.109375 16.386719 13.585938 16.164062 13.945312 15.875 14.191406 15.523438 14.679688 14.839844 14.921875 14.105469 14.921875 13.316406zM13.488281 11.867188C13.058594 12.296875 12.527344 12.511719 11.902344 12.511719 11.273438 12.511719 10.742188 12.296875 10.308594 11.867188 9.871094 11.433594 9.652344 10.90625 9.652344 10.277344 9.652344 9.652344 9.871094 9.121094 10.308594 8.683594 10.742188 8.246094 11.273438 8.027344 11.894531 8.027344 12.515625 8.027344 13.046875 8.238281 13.480469 8.660156 13.917969 9.085938 14.136719 9.617188 14.136719 10.257812 14.136719 10.898438 13.921875 11.433594 13.488281 11.867188zM13.488281 11.867188"/>
    <path d="M 11.585938 18.828125 L 0.828125 18.828125 L 0.828125 5.171875 L 20.277344 5.171875 L 20.277344 11.792969 C 20.277344 12.023438 20.460938 12.207031 20.691406 12.207031 C 20.917969 12.207031 21.101562 12.023438 21.101562 11.792969 L 21.101562 0.207031 L 0 0.207031 L 0 19.242188 C 0 19.46875 0.183594 19.65625 0.414062 19.65625 L 11.585938 19.65625 C 11.816406 19.65625 12 19.46875 12 19.242188 C 12 19.011719 11.816406 18.828125 11.585938 18.828125 Z M 14.484375 1.035156 L 20.277344 1.035156 L 20.277344 4.34375 L 14.484375 4.34375 Z M 7.863281 1.035156 L 13.65625 1.035156 L 13.65625 4.34375 L 7.863281 4.34375 Z M 0.828125 1.035156 L 7.035156 1.035156 L 7.035156 4.34375 L 0.828125 4.34375 Z M 0.828125 1.035156"/>
</svg>

<svg xmlns="http://www.w3.org/2000/svg" width="32" height="32" viewBox="0 0 24 24">
    <path d="M19.035 13.863a4.97 4.97 0 0 0-4.965 4.965 4.97 4.97 0 0 0 4.965 4.965A4.97 4.97 0 0 0 24 18.828a4.97 4.97 0 0 0-4.965-4.965zm0 9.102a4.141 4.141 0 0 1-4.137-4.137 4.141 4.141 0 0 1 4.137-4.137 4.141 4.141 0 0 1 4.137 4.137 4.141 4.141 0 0 1-4.137 4.137zm0 0"/>
    <path d="M21.516 18.414h-2.067v-2.07a.414.414 0 0 0-.828 0v2.484c0 .227.184.414.414.414h2.48a.414.414 0 0 0 0-.828zm0 0M7.473 16.79V7.241h-.828L4.55 8.484v.825L6.645 8.07v8.72zm0 0M14.922 13.316v-3.039c0-.843-.297-1.558-.883-2.148a2.919 2.919 0 0 0-2.144-.883c-.84 0-1.555.293-2.145.883-.586.59-.883 1.3-.883 2.14 0 .844.297 1.555.883 2.145.59.59 1.316.883 2.188.883.867 0 1.601-.32 2.199-.969v.89c0 .891-.262 1.567-.785 2.028-.52.461-1.137.691-1.852.691h-.305v.786h.25c.637 0 1.192-.114 1.664-.336.477-.223.836-.512 1.082-.864.489-.683.73-1.418.73-2.207zm-1.434-1.449c-.43.43-.96.645-1.586.645-.629 0-1.16-.215-1.593-.645a2.149 2.149 0 0 1-.657-1.59c0-.625.22-1.156.657-1.593a2.152 2.152 0 0 1 1.586-.657c.62 0 1.152.211 1.585.633.438.426.657.957.657 1.598 0 .64-.215 1.176-.649 1.61zm0 0"/>
    <path d="M11.586 18.828H.828V5.172h19.45v6.621a.412.412 0 1 0 .824 0V.207H0v19.035c0 .227.184.414.414.414h11.172a.414.414 0 0 0 0-.828zm2.898-17.793h5.793v3.309h-5.793zm-6.62 0h5.792v3.309H7.863zm-7.036 0h6.207v3.309H.828zm0 0"/>
</svg>
